symbols/web/cast_connected/materialsymbolsrounded/cast_connected_wght600grad200fill1_20px.svg

<svg xmlns="http://www.w3.org/2000/svg" height="20" width="20"><path d="M14.188 13.5h-.292q.542 0 .927-.385.385-.386.385-.907V7.771q0-.521-.385-.906-.385-.386-.927-.386H9.5q1.646 1.459 2.812 3.219 1.167 1.76 1.876 3.802Zm-1.438 3.979q0-2.458-.938-4.646-.937-2.187-2.552-3.802Q7.646 7.417 5.469 6.49 3.292 5.562.833 5.562v-.416q0-1.104.771-1.865.771-.76 1.875-.76h13.042q1.104 0 1.875.76.771.761.771 1.865v9.708q0 1.104-.771 1.865-.771.76-1.875.76Zm-4.396 0q0-3.125-2.198-5.333T.833 9.938V7.833q1.979 0 3.74.75 1.76.75 3.073 2.073 1.312 1.323 2.062 3.073.75 1.75.75 3.75Zm-4.375 0q0-1.291-.927-2.219-.927-.927-2.219-.927v-2.104q2.209 0 3.729 1.531 1.521 1.532 1.521 3.719Z"/></svg>

<svg xmlns="http://www.w3.org/2000/svg" height="20" width="20"><path d="M14.188 13.5H13.896Q14.438 13.5 14.823 13.115Q15.208 12.729 15.208 12.208V7.771Q15.208 7.25 14.823 6.865Q14.438 6.479 13.896 6.479H9.5Q11.146 7.938 12.312 9.698Q13.479 11.458 14.188 13.5ZM12.75 17.479Q12.75 15.021 11.812 12.833Q10.875 10.646 9.26 9.031Q7.646 7.417 5.469 6.49Q3.292 5.562 0.833 5.562V5.146Q0.833 4.042 1.604 3.281Q2.375 2.521 3.479 2.521H16.521Q17.625 2.521 18.396 3.281Q19.167 4.042 19.167 5.146V14.854Q19.167 15.958 18.396 16.719Q17.625 17.479 16.521 17.479ZM8.354 17.479Q8.354 14.354 6.156 12.146Q3.958 9.938 0.833 9.938V7.833Q2.812 7.833 4.573 8.583Q6.333 9.333 7.646 10.656Q8.958 11.979 9.708 13.729Q10.458 15.479 10.458 17.479ZM3.979 17.479Q3.979 16.188 3.052 15.26Q2.125 14.333 0.833 14.333V12.229Q3.042 12.229 4.562 13.76Q6.083 15.292 6.083 17.479Z"/></svg>
